X: 1
T: Mother's Delight
R: reel
M: 4/4
L: 1/8
K: Ddor
DE|:F2 FE F2 DE|FDGE FECE|Ddd^c defe|
decd ABcA|d2 dc AGAB|c2 cG E~C3|Dddc AGAB|cAGE EDDE:|
|:FAdA FD (3DDD|EGcG EC (3CCC|FAdA FDDF|
|EDCE D2 DE:|


Tune 257	Setting 12989

